X:1
T:Title
%%score 1 2
L:1/8
M:4/4
K:Ab
V:1 treble nm="Grand Piano, Unnamed-000"
V:2 bass nm="Choir Pad, Unnamed-001"
V:1
 [Ec][DB] [CA]6 | [CA][EG] [DF]6 | [EG][DF] [CE]2 [EA][EB] [Ec]2 | [Ed][Ec] [EB]6 | %4
w: By~Elisha~A.~Hoffman * *||||
 [Ec][DB] [CA]2 [CA]2 [CA][Ec] | [EB][EA] [DF]2 [DF]2 [DF]2 | [DF][DF] [CE]2 [CE][CE] [EA]2 | %7
w: |||
 [DG][DG] [CA]6- | [CA]2 z2 z4 |] %9
w: ||
V:2
 z4 [A,,A,][A,,A,] [A,,A,]2 | z4 [D,A,][D,A,] [D,A,]2 | [D,A,][D,A,] [A,,A,]2 [C,A,][E,G,] A,2 | %3
 [G,B,]A, [E,G,]2 [E,G,][E,G,] [E,G,]2 | [E,A,]E, [A,,E,]2 [A,,E,]2 [A,,E,][A,,A,] | %5
 [B,,G,][C,A,] [D,A,]2 [D,A,]2 [D,A,]2 | [D,A,][D,A,] [E,A,]2 [E,A,][E,A,] [E,C]2 | %7
 [E,B,]E, [A,,E,]6- | [A,,E,]2 z2 z4 |] %9

